Yaru++/actions/16/document-save-as.svg

<svg height="16" width="16" xmlns="http://www.w3.org/2000/svg">
  <path d="m6 0v5h-2.156s2.078 5.312 4.156 8.156c2.078-2.844 4.156-8.156 4.156-8.156h-2.156v-5zm1 1h2v5h1.588c-.47.998-1.188 3.213-2.588 5.32-1.4-2.107-2.18-4.322-2.65-5.32h1.65zm5 9v1h2v-1zm-1 2v1h3v-1zm-9 2v1h12v-1z" fill="#808080"/>
</svg>

<svg height="16" width="16" xmlns="http://www.w3.org/2000/svg">
    <path d="M6 0v5H3.844S5.922 10.312 8 13.156C10.078 10.312 12.156 5 12.156 5H10V0zm1 1h2v5h1.588C10.118 6.998 9.4 9.213 8 11.32 6.6 9.213 5.82 6.998 5.35 6H7zm5 9v1h2v-1zm-1 2v1h3v-1zm-9 2v1h12v-1z" overflow="visible" style="marker:none" color="#000" fill="gray"/>
</svg>
